src/shared/assets/home.svg

<svg width="24" height="24" viewBox="0 0 24 24" fill="none" xmlns="http://www.w3.org/2000/svg">
<g clip-path="url(#clip0_4_1869)">
<path d="M12.5382 3.19801C12.2257 2.934 11.7708 2.934 11.4583 3.19801L2.29164 10.9795C1.94095 11.2783 1.89928 11.8028 2.19442 12.1537C2.48956 12.5045 3.01734 12.5462 3.36803 12.2509L4.2222 11.5284V18.0072C4.2222 19.5426 5.46525 20.7863 6.99998 20.7863H17C18.5347 20.7863 19.7778 19.5426 19.7778 18.0072V11.5284L20.6284 12.2509C20.9791 12.5497 21.5069 12.5045 21.8021 12.1537C22.0972 11.8028 22.0555 11.2748 21.7048 10.9795L12.5382 3.19801ZM5.88886 18.0072V10.1145L12 4.928L18.1111 10.1145V18.0072C18.1111 18.622 17.6146 19.1188 17 19.1188H15.3333V13.8385C15.3333 13.0708 14.7118 12.4489 13.9444 12.4489H10.0555C9.28817 12.4489 8.66664 13.0708 8.66664 13.8385V19.1188H6.99998C6.38539 19.1188 5.88886 18.622 5.88886 18.0072ZM10.3333 19.1188V14.1164H13.6666V19.1188H10.3333Z" fill="#3E414F"/>
</g>
<defs>
<clipPath id="clip0_4_1869">
<rect width="20" height="17.7863" fill="white" transform="translate(2 3)"/>
</clipPath>
</defs>
</svg>

<svg xmlns="http://www.w3.org/2000/svg" width="24" height="24" fill="currentColor" viewBox="0 0 24 24">
  <g clip-path="url(#a)">
    <path d="M12.538 3.198a.835.835 0 0 0-1.08 0l-9.166 7.781a.836.836 0 0 0-.098 1.175.834.834 0 0 0 1.174.097l.854-.723v6.48A2.778 2.778 0 0 0 7 20.785h10a2.778 2.778 0 0 0 2.778-2.779v-6.479l.85.723a.831.831 0 0 0 1.174-.097.835.835 0 0 0-.097-1.175l-9.167-7.781Zm-6.65 14.81v-7.893L12 4.927l6.111 5.186v7.893A1.11 1.11 0 0 1 17 19.12h-1.667v-5.28c0-.768-.621-1.39-1.389-1.39h-3.889c-.767 0-1.388.622-1.388 1.39v5.28H7a1.11 1.11 0 0 1-1.111-1.112Zm4.445 1.11v-5.002h3.334v5.003h-3.334Z"/>
  </g>
  <defs>
    <clipPath id="a">
      <path d="M2 3h20v17.786H2z"/>
    </clipPath>
  </defs>
</svg>
